X:15
T:Branle double de Poitou 2
M:3/2
L:1/2
K:G
|: B2 c | d d/c/B/A/ | G d2 | B2 G | B2 c | d d/c/B/A/ | G d2 | B3 :|
|: e c e | e c e | g e c | d/c/d/e/ d | c d/c/B/A/ | B>A G | G F2 | G3 :|
